X: 181
T: Hanggua kaihua zao shangjia
L: 1/8
M: 2/4
K: Bb
c'> d' c' d' [I:setbarnb 1]| 
c'> d' c' d' | 
b> b a c' | 
a gf2 | 
b> b a c' | 
a gf2 | 
b b/ c'/ d' d'/ c'/ | 
b b/ c'/ g f | 
d/ f/ d/ f/ d' c'/ d'/ | 
f4 | 
c'> d' c' d' | 
c'> d' c' d' | 
b> b a c' | 
a gf2 | 
b> b a c' | 
a gf2 | 
b> c' d' c' | 
b c' g f | 
b> d' c' d' | 
b c' g f | 
b> c' g f | 
b> d' c' d' | 
b c' g f | 
d/ f/ d/ f/ d' c'/ d'/ | 
f4 |]

@@@ Tune index: 9055
